X: 1
T: Durham Rangers, The
C: Trad
R: Hornpipe (Not Swung)
L: 1/8
M: 4/4
K: D
Z: ABC transcription by Verge Roller
|: FG | "D" ABAF A2 de | "D" fgef d2 AA | "G" BcdB "D" ABAF | "A" G2 E2 E2 FG |
"D" ABAF A2 de | "D" fgef d2 AA | "G" BcdB "A" ABAG | "D" F2 D2 D2 :|
|: ag | "D" fefg "Bm" afdf | "Em" edcB "A" A2 f2 | "G" g2 bg "D" f2 af | "Em" g2 e2 "A" e2 FG |
"D" ABAF A2 de | "D" fgef d2 AA | "G" BcdB "A" ABAG | "D" F2 D2 D2 :|
r: 32
